X:1
T:Title
%%score 1 2 3
L:1/8
Q:1/4=180
M:6/4
K:A
V:1 treble nm="Grand Piano"
V:2 bass nm="Grand Piano, Melody"
V:3 bass nm="Grand Piano"
V:1
 z6 C6 | E2 C2 A,2 C2 C2 C2 | C6 E6 | E2 C2 E2 E2 C2 A,2 | C6 C6 | E2 C2 A,2 C2 C2 C2 | C6 E6 | %7
 E2 C2 E2 E2 C2 A,2 | C12 | z6[K:bass] E6 | C2 B,2 A,2 B,2 B,2 B,2 | A,6 C4 A,2 | %12
 F,2 F,2 F,2 A,2[K:treble] C2 E2 | C6 B,4 C2 | C2 B,2 A,2 C2 C2 C2 | C6 E6 | E2 C2 E2 E2 C2 A,2 | %17
 C12 |] %18
V:2
 z6 C6 | B,2 A,2 A,2 E,2 F,2 A,2 | C6 A,6 | B,2 A,2 A,2 E,2 F,2 A,2 | A,6 C6 | %5
 B,2 A,2 A,2 E,2 F,2 A,2 | C6 A,6 | B,2 A,2 A,2 E,2 F,2 A,2 | A,12 | z6 A,6 | %10
 A,2 B,2[K:treble] C2 E2 E2 E2 | A,6[K:bass] F,4 F,2 | D2 D2 D2[K:treble] D2 C2 B,2 | C6 B,4 E2 | %14
 A,2 B,2 A,2 A,2 F,2 A,2 | C6 A,6 | B,2 A,2 A,2 E,2 F,2 A,2 | A,12 |] %18
V:3
 z6 A,6 | E,2 F,2 A,2 A,2 F,2 F,2 | F,6 A,6 | E,2 F,2 A,2 A,2 F,2 E,2 | A,,6 A,6 | %5
 E,2 F,2 A,2 A,2 F,2 F,2 | F,6 A,6 | E,2 F,2 A,2 A,2 F,2 E,2 | A,,12 | z6 A,6 | %10
 A,2 G,2 F,2 E,2 E,2 E,2 | A,6 F,4 A,2 | D,2 D,2 D,2 D,2 C,2 E,2 | C,6 E,4 A,2 | %14
 A,2 E,2 A,2 A,2 F,2 F,2 | F,6 A,6 | E,2 F,2 A,2 A,2 F,2 E,2 | A,,12 |] %18

